public/home/logo1.svg

<svg width="216" height="65" viewBox="0 0 216 65" fill="none" xmlns="http://www.w3.org/2000/svg">
<g clip-path="url(#clip0_561_81)">
<path d="M87.6981 46.2781C84.6975 46.2781 82.3575 45.4418 80.6772 43.7683C79.0172 42.0952 78.187 39.7062 78.187 36.6018V24.748H83.0476V36.4203C83.0476 40.2105 84.6078 42.1054 87.728 42.1054C89.2483 42.1054 90.4084 41.6516 91.2084 40.7444C92.0083 39.8173 92.4085 38.3758 92.4085 36.4203V24.748H97.2088V36.6018C97.2088 39.7062 96.3689 42.0952 94.6887 43.7683C93.0287 45.4418 90.6984 46.2781 87.6981 46.2781Z" fill="white"/>
<path d="M99.5815 35.5137H108.073V39.2937H99.5815V35.5137Z" fill="white"/>
<path d="M113.852 28.7396H107.131V24.748H125.433V28.7396H118.712V45.9155H113.852V28.7396Z" fill="white"/>
<path d="M142.127 29.6465V45.9152H137.687V43.98C137.067 44.6853 136.327 45.2298 135.467 45.6128C134.607 45.9754 133.677 46.1569 132.676 46.1569C130.556 46.1569 128.876 45.542 127.636 44.3125C126.396 43.0826 125.776 41.2581 125.776 38.8391V29.6465H130.456V38.1437C130.456 40.7645 131.547 42.0749 133.727 42.0749C134.847 42.0749 135.747 41.7119 136.427 40.9863C137.107 40.2403 137.447 39.1415 137.447 37.6901V29.6465H142.127Z" fill="white"/>
<path d="M149.434 31.7932C149.994 31.007 150.744 30.4123 151.684 30.0091C152.645 29.6059 153.745 29.4043 154.985 29.4043V33.7587C154.465 33.7184 154.115 33.6982 153.935 33.6982C152.594 33.6982 151.545 34.0813 150.784 34.8473C150.024 35.5932 149.644 36.7221 149.644 38.2341V45.9149H144.964V29.6462H149.434V31.7932Z" fill="white"/>
<path d="M166.079 29.4043C168.079 29.4043 169.689 30.0091 170.909 31.2186C172.149 32.4282 172.769 34.2224 172.769 36.6012V45.9149H168.089V37.3269C168.089 36.0367 167.809 35.0791 167.249 34.4542C166.689 33.8091 165.879 33.4866 164.818 33.4866C163.639 33.4866 162.699 33.8595 161.998 34.6054C161.298 35.3311 160.948 36.4198 160.948 37.8712V45.9149H156.268V29.6462H160.738V31.5513C161.358 30.8658 162.128 30.3417 163.049 29.9788C163.968 29.5958 164.979 29.4043 166.079 29.4043Z" fill="white"/>
<path fill-rule="evenodd" clip-rule="evenodd" d="M57.2771 19.2479C58.0753 18.4434 59.3694 18.4434 60.1676 19.2479L67.6421 26.7813L60.1336 34.0049C59.3171 34.7905 58.0233 34.7602 57.2439 33.9372C56.4645 33.1143 56.4946 31.8104 57.3111 31.0248L59.6164 28.807H54.6346C50.6462 28.807 47.4129 32.0657 47.4129 36.0854C47.4129 40.1054 50.6462 43.3641 54.6346 43.3641H64.7177C65.8464 43.3641 66.7618 44.2863 66.7618 45.4238C66.7618 46.5617 65.8464 47.4839 64.7177 47.4839H54.6346C48.3886 47.4839 43.3252 42.3808 43.3252 36.0854C43.3252 29.7903 48.3886 24.687 54.6346 24.687H59.7834L57.2771 22.1611C56.479 21.3566 56.479 20.0524 57.2771 19.2479Z" fill="white"/>
</g>
<defs>
<clipPath id="clip0_561_81">
<rect width="130" height="30" fill="white" transform="translate(43 18)"/>
</clipPath>
</defs>
</svg>

<svg width="216" height="65" fill="none" xmlns="http://www.w3.org/2000/svg"><g clip-path="url(#a)" fill="#fff"><path d="M87.698 46.278c-3 0-5.34-.836-7.02-2.51-1.66-1.673-2.491-4.062-2.491-7.166V24.748h4.86V36.42c0 3.79 1.56 5.685 4.681 5.685 1.52 0 2.68-.453 3.48-1.36.8-.928 1.2-2.37 1.2-4.325V24.748h4.8v11.854c0 3.104-.84 5.493-2.52 7.166-1.66 1.674-3.99 2.51-6.99 2.51ZM99.582 35.514h8.491v3.78h-8.491v-3.78ZM113.852 28.74h-6.721v-3.992h18.302v3.992h-6.721v17.176h-4.86V28.74ZM142.127 29.646v16.27h-4.44V43.98a6.375 6.375 0 0 1-2.22 1.633c-.86.362-1.79.544-2.791.544-2.12 0-3.8-.615-5.04-1.844-1.24-1.23-1.86-3.055-1.86-5.474v-9.192h4.68v8.497c0 2.62 1.091 3.93 3.271 3.93 1.12 0 2.02-.362 2.7-1.088.68-.746 1.02-1.844 1.02-3.296v-8.043h4.68ZM149.434 31.793c.56-.786 1.31-1.38 2.25-1.784.961-.403 2.061-.605 3.301-.605v4.355c-.52-.04-.87-.06-1.05-.06-1.341 0-2.39.382-3.151 1.148-.76.746-1.14 1.875-1.14 3.387v7.68h-4.68V29.647h4.47v2.147ZM166.079 29.404c2 0 3.61.605 4.83 1.815 1.24 1.21 1.86 3.003 1.86 5.382v9.314h-4.68v-8.588c0-1.29-.28-2.248-.84-2.873-.56-.645-1.37-.967-2.431-.967-1.179 0-2.119.372-2.82 1.118-.7.726-1.05 1.815-1.05 3.266v8.044h-4.68V29.646h4.47v1.905c.62-.685 1.39-1.21 2.311-1.572.919-.383 1.93-.575 3.03-.575Z"/><path fill-rule="evenodd" clip-rule="evenodd" d="M57.277 19.248a2.033 2.033 0 0 1 2.89 0l7.475 7.533-7.508 7.224a2.033 2.033 0 0 1-2.89-.068 2.071 2.071 0 0 1 .067-2.912l2.305-2.218h-4.981c-3.989 0-7.222 3.259-7.222 7.278 0 4.02 3.233 7.28 7.222 7.28h10.083c1.128 0 2.044.921 2.044 2.059 0 1.138-.916 2.06-2.044 2.06H54.635c-6.246 0-11.31-5.103-11.31-11.399 0-6.295 5.064-11.398 11.31-11.398h5.148l-2.506-2.526a2.072 2.072 0 0 1 0-2.913Z"/></g><defs><clipPath id="a"><path fill="#fff" transform="translate(43 18)" d="M0 0h130v30H0z"/></clipPath></defs></svg>
